assets/img/persent.svg

<svg width="120" height="120" viewBox="0 0 120 120" fill="none" xmlns="http://www.w3.org/2000/svg">
<circle cx="60" cy="60" r="60" fill="#F3F3F3"/>
<path d="M92.9547 36.5041C92.4461 35.9957 91.6218 35.9957 91.1131 36.5041C88.4515 39.1658 86.4693 42.5527 85.3811 46.2988C85.3106 46.5413 85.2328 46.7904 85.1504 47.0387C83.8069 51.0715 81.4361 54.0193 81.3355 54.143C81.2965 54.191 81.2551 54.2371 81.2124 54.28C80.5799 54.9121 79.5783 54.9631 78.8823 54.3981C78.5629 54.1388 78.3602 53.7888 78.2792 53.415C78.2767 53.4058 78.275 53.3966 78.2725 53.3875C78.174 52.895 78.2871 52.3639 78.6279 51.9442C78.6476 51.9199 80.6041 49.4845 81.7383 46.2477C83.2868 41.8286 82.6136 38.0014 79.7916 35.1793C78.5215 33.9093 76.8511 33.185 75.0878 33.1396C73.2985 33.0921 71.6338 33.7493 70.3977 34.9853C69.1287 36.2539 68.4743 37.9632 68.5549 39.7983C68.5971 40.759 67.8498 41.5751 66.8891 41.6174C65.9286 41.6603 65.1122 40.9122 65.07 39.9516C64.9477 37.1686 65.9903 34.4593 67.931 32.5188C70.5919 29.858 74.5188 28.9635 78.1784 30.1845C80.153 30.8429 82.2857 30.347 83.7432 28.8895C84.2517 28.381 84.2517 27.5565 83.7432 27.0479C83.2346 26.5395 82.4103 26.5395 81.9016 27.0479C81.1462 27.8034 80.0354 28.0586 79.0023 27.7139C74.4004 26.1788 69.4522 27.314 66.0893 30.6769C63.6337 33.1327 62.3138 36.5549 62.4681 40.0658C62.5146 41.1231 62.9376 42.0756 63.6012 42.8016L61.8076 44.5952C61.6362 44.3021 61.427 44.0305 61.185 43.7885L61.1062 43.7097C59.5517 42.1555 57.0227 42.1553 55.4682 43.7098C53.9139 45.2643 53.9139 47.7933 55.4682 49.3476L55.5473 49.4265C55.7893 49.6686 56.0607 49.8776 56.3538 50.0491L54.1586 52.2442C53.8092 52.5936 53.5808 53.0173 53.4672 53.4646C53.0201 53.5781 52.5964 53.8065 52.247 54.1557L50.0519 56.3509C49.8805 56.0578 49.6713 55.7863 49.4293 55.5442L49.3506 55.4654C47.7961 53.9109 45.2671 53.9111 43.7126 55.4654C42.1583 57.0199 42.1583 59.5489 43.7126 61.1034L43.7914 61.1822C44.0335 61.4241 44.3049 61.6333 44.5981 61.8047L42.8041 63.5987C42.0775 62.9348 41.124 62.5118 40.0663 62.4651C36.5564 62.3101 33.1333 63.6307 30.6776 66.0865C27.3149 69.4491 26.1794 74.3971 27.7144 78.9993C28.0589 80.0323 27.8038 81.1433 27.0484 81.8986C26.5399 82.4071 26.5399 83.2316 27.0484 83.7402C27.557 84.2486 28.3812 84.2486 28.89 83.7402C30.3474 82.2826 30.8438 80.1503 30.1849 78.1755C28.964 74.5153 29.8586 70.5886 32.5194 67.9281C34.4597 65.9877 37.166 64.9445 39.9521 65.0669C40.9128 65.1092 41.6601 65.9254 41.618 66.886C41.5757 67.8468 40.7606 68.5923 39.7989 68.552C37.9651 68.4717 36.2548 69.1254 34.9857 70.3945C32.4493 72.9309 32.5366 77.1451 35.1799 79.7885C37.2229 81.8316 39.5448 82.5475 41.7959 82.5474C47.0277 82.547 51.8764 78.6806 51.9454 78.6244C52.6921 78.0186 53.7927 78.133 54.3987 78.8797C54.9635 79.5756 54.9126 80.5772 54.2813 81.2088C54.2376 81.2525 54.1914 81.2942 54.1436 81.3329C54.02 81.4333 51.0712 83.8043 47.0392 85.1477C46.7946 85.2292 46.5457 85.3068 46.2994 85.3783C42.5532 86.4666 39.1664 88.4487 36.5048 91.1104C35.9963 91.6189 35.9963 92.4433 36.5048 92.9519C36.7591 93.2062 37.0923 93.3333 37.4254 93.3333C37.7588 93.3333 38.092 93.2061 38.3463 92.9519C40.6984 90.5997 43.6998 88.8456 47.0259 87.8792C47.3045 87.7983 47.5861 87.7104 47.8624 87.6184C52.339 86.1269 55.6458 83.4674 55.7845 83.3551C55.9012 83.2604 56.0145 83.1583 56.122 83.051C57.7003 81.4723 57.8286 78.9735 56.4206 77.2386C56.4114 77.2271 56.4015 77.2166 56.3921 77.2052L58.1952 75.4022C58.3666 75.6953 58.5758 75.9669 58.8178 76.2089L58.8966 76.2876C60.4511 77.8419 62.9801 77.842 64.5346 76.2875C66.0889 74.733 66.0889 72.204 64.5346 70.6497L64.4558 70.5709C64.2137 70.3288 63.9421 70.1197 63.649 69.9482L65.8442 67.7531C66.1936 67.4037 66.422 66.98 66.5355 66.5327C66.9827 66.4192 67.4064 66.1908 67.7558 65.8416L70.6261 62.9713C71.1193 62.478 71.3138 61.7525 71.1336 61.0779C70.9546 60.4069 70.4276 59.8778 69.7582 59.6971C69.5241 59.6341 69.3174 59.5141 69.1441 59.3407L69.0653 59.2619C68.5262 58.723 68.5262 57.846 69.0653 57.307C69.6041 56.7681 70.4811 56.7678 71.0202 57.307L71.099 57.3858C71.2724 57.5591 71.3924 57.7658 71.4555 58.0001C71.6361 58.6693 72.165 59.1963 72.8362 59.3753C73.5109 59.5558 74.2363 59.3609 74.7296 58.8678L77.2065 56.3908C77.2181 56.4005 77.2291 56.4108 77.241 56.4203C78.0466 57.0741 79.0167 57.3966 79.983 57.3966C81.098 57.3966 82.2078 56.9672 83.0536 56.1216C83.1597 56.0153 83.262 55.9018 83.3574 55.7843C83.4699 55.6459 86.1292 52.3397 87.621 47.8615C87.7144 47.5813 87.802 47.2999 87.8817 47.0255C88.848 43.6995 90.6021 40.6981 92.9544 38.3458C93.4632 37.8371 93.4632 37.0126 92.9547 36.5041ZM71.1564 39.6836C71.1084 38.5872 71.4928 37.5725 72.2389 36.8265C72.9652 36.1002 73.9587 35.7182 75.0206 35.7427C76.1137 35.7709 77.1539 36.2246 77.9497 37.0205C83.0521 42.123 76.6671 50.2258 76.605 50.3034C76.4597 50.4824 76.3313 50.6698 76.2191 50.8633L75.432 50.0762C75.668 49.9236 75.8886 49.746 76.0878 49.5469L76.1666 49.4681C77.721 47.9136 77.721 45.3846 76.1666 43.8302C75.4137 43.0772 74.4125 42.6624 73.3476 42.6624C72.2828 42.6624 71.2817 43.0772 70.5294 43.8293L70.4499 43.9088C70.2508 44.1079 70.073 44.3284 69.9204 44.5646L68.9914 43.6356C70.3454 42.8479 71.2299 41.354 71.1564 39.6836ZM37.0215 77.9468C35.3934 76.3188 35.3063 73.7568 36.8272 72.2359C37.5736 71.4898 38.5921 71.1057 39.6845 71.1535C41.3564 71.2287 42.8503 70.3429 43.6375 68.9874L44.5987 69.9486C44.3017 70.1213 44.0263 70.3326 43.7807 70.5781L43.7028 70.6562C42.9498 71.4091 42.535 72.4103 42.535 73.475C42.535 74.5401 42.9498 75.5411 43.7027 76.294C45.2572 77.8482 47.7859 77.8482 49.3415 76.2932L49.4192 76.2152C49.6644 75.9702 49.8756 75.6952 50.0482 75.398L50.8651 76.215C50.6724 76.3268 50.4859 76.4547 50.3076 76.5994C50.2264 76.6645 42.1248 83.0501 37.0215 77.9468ZM64.0029 65.9112L61.1326 68.7815C60.6392 69.2749 60.4447 70.0006 60.6251 70.6753C60.8042 71.3463 61.3313 71.8752 62.0004 72.0557C62.2345 72.1187 62.4411 72.2388 62.6146 72.4122L62.6934 72.491C63.2323 73.03 63.2323 73.907 62.6935 74.4459C62.1543 74.9846 61.2774 74.9849 60.7385 74.4459L60.6594 74.367C60.4861 74.1937 60.3662 73.9872 60.3032 73.753C60.1227 73.0839 59.5939 72.5568 58.9228 72.3776C58.2476 72.197 57.5223 72.3918 57.029 72.8852L54.1587 75.7555C54.15 75.7642 54.1384 75.7678 54.1269 75.7686C54.1208 75.767 54.1148 75.7652 54.1087 75.7637C54.1018 75.7613 54.0942 75.7609 54.0888 75.7555L51.2122 72.8791C50.8405 72.5072 50.3371 72.3049 49.8228 72.3049C49.6533 72.3049 49.4826 72.327 49.315 72.3721C48.6427 72.5531 48.1142 73.0826 47.9359 73.7542C47.874 73.9872 47.7504 74.2014 47.5772 74.3744L47.4993 74.4525C46.9602 74.9912 46.0833 74.9916 45.5442 74.4525C45.2831 74.1915 45.1394 73.8443 45.1394 73.475C45.1394 73.1059 45.2831 72.7587 45.5451 72.4969L45.6228 72.4189C45.7978 72.244 46.0063 72.1234 46.2425 72.0609C46.9139 71.8828 47.4435 71.3545 47.6245 70.6824C47.8065 70.0066 47.6125 69.2794 47.1179 68.7846L44.2444 65.9112C44.2251 65.892 44.2251 65.8606 44.2444 65.8413L47.1138 62.9719L47.1147 62.971C47.6079 62.4778 47.8025 61.7522 47.6223 61.0776C47.4432 60.4066 46.9162 59.8776 46.2468 59.6968C46.0127 59.6338 45.806 59.5139 45.6327 59.3404L45.554 59.2617C45.2929 59.0006 45.1491 58.6534 45.1491 58.2843C45.1491 57.915 45.2929 57.5678 45.554 57.3068C45.815 57.0457 46.1622 56.9019 46.5313 56.9019C46.9006 56.9019 47.2478 57.0457 47.5088 57.3068L47.5876 57.3855C47.7611 57.5589 47.881 57.7655 47.944 57.9996C48.1245 58.6688 48.6533 59.1958 49.3244 59.3751C49.999 59.5548 50.7247 59.3609 51.2182 58.8675L54.0885 55.9972C54.1078 55.9779 54.1391 55.9779 54.1584 55.9972L56.3232 58.1619C56.0871 58.3146 55.8666 58.4922 55.6675 58.6913L55.5887 58.7701C54.0343 60.3244 54.0343 62.8534 55.5887 64.4081C56.3416 65.1609 57.3428 65.5757 58.4075 65.5757C59.4725 65.5757 60.4736 65.1609 61.2265 64.4081L61.3053 64.3293C61.507 64.1274 61.6841 63.9088 61.8358 63.6746L64.0026 65.8414C64.0222 65.8607 64.0222 65.892 64.0029 65.9112ZM73.5634 56.3509C73.392 56.0578 73.1828 55.7863 72.9408 55.5442L72.8621 55.4654C71.3076 53.9109 68.7786 53.9111 67.2241 55.4654C65.6698 57.0199 65.6698 59.5489 67.2241 61.1034L67.3029 61.1822C67.545 61.4241 67.8166 61.6333 68.1096 61.8047L65.9144 63.9998C65.8952 64.0191 65.8638 64.0191 65.8445 63.9998L63.0375 61.193C62.5535 60.7091 61.8668 60.5138 61.1997 60.6713C60.5368 60.8277 60.0127 61.3059 59.7972 61.9507C59.7294 62.1537 59.6173 62.3343 59.4639 62.4877L59.3852 62.5665C58.8462 63.1055 57.9692 63.1053 57.4303 62.5666C56.8913 62.0275 56.8913 61.1505 57.4303 60.6116L57.5091 60.5328C57.6626 60.3793 57.8432 60.2672 58.0462 60.1993C58.6909 59.9841 59.1691 59.4596 59.3254 58.7967C59.4826 58.1298 59.2874 57.4428 58.8035 56.9591L56 54.1556C55.9807 54.1363 55.9807 54.105 56 54.0857L58.8703 51.2154C59.3637 50.722 59.5582 49.9964 59.3779 49.3216C59.1987 48.6506 58.6716 48.1217 58.0026 47.9412C57.7686 47.8782 57.5618 47.7581 57.3883 47.5847L57.3096 47.5059C56.7706 46.9669 56.7706 46.09 57.3094 45.551C57.8485 45.0122 58.7254 45.0119 59.2645 45.551L59.3432 45.6298C59.5167 45.8032 59.6367 46.0099 59.6998 46.2439C59.8802 46.9129 60.409 47.44 61.08 47.6192C61.7548 47.7995 62.4803 47.6051 62.974 47.1117L65.8442 44.2415C65.8635 44.2222 65.8949 44.2222 65.9142 44.2415L68.7177 47.0449C69.2019 47.5289 69.8888 47.724 70.5557 47.5667C71.2188 47.4103 71.7429 46.9321 71.958 46.2875C72.0258 46.0845 72.138 45.9039 72.2907 45.7512L72.3703 45.6716C72.6313 45.4105 72.9785 45.2668 73.3476 45.2668C73.7169 45.2668 74.0641 45.4105 74.3251 45.6717C74.5862 45.9328 74.73 46.2799 74.73 46.6492C74.73 47.0184 74.5862 47.3655 74.3251 47.6266L74.2465 47.7053C74.0928 47.8588 73.9121 47.9709 73.7091 48.0387C73.0645 48.254 72.5863 48.7783 72.4299 49.4413C72.2726 50.1079 72.4677 50.7949 72.9517 51.2792L75.7584 54.0859C75.7636 54.0912 75.7639 54.0983 75.7662 54.1048C75.7679 54.1115 75.7697 54.118 75.7714 54.1246C75.7705 54.1359 75.7671 54.1473 75.7584 54.156L73.5634 56.3509Z" fill="#6ADF91"/>
<path d="M41.4492 43.2901C41.7035 43.5442 42.0367 43.6715 42.3699 43.6715C42.7031 43.6715 43.0363 43.5442 43.2906 43.2901C43.7991 42.7816 43.7991 41.9571 43.2906 41.4485L38.4368 36.5946C37.9282 36.0863 37.104 36.0863 36.5952 36.5946C36.0867 37.1031 36.0867 37.9276 36.5952 38.4362L41.4492 43.2901Z" fill="#4BB1E9"/>
<path d="M45.6439 46.9457C45.9864 46.9457 46.3223 46.8075 46.5644 46.564C46.8066 46.322 46.9461 45.986 46.9461 45.6436C46.9461 45.3011 46.8067 44.9665 46.5644 44.723C46.3223 44.4808 45.9864 44.3414 45.6439 44.3414C45.3013 44.3414 44.9655 44.4806 44.7233 44.723C44.4811 44.9653 44.3418 45.3011 44.3418 45.6436C44.3418 45.9873 44.481 46.322 44.7233 46.564C44.9656 46.8075 45.3015 46.9457 45.6439 46.9457Z" fill="#4BB1E9"/>
<path d="M35.141 50.7462C35.1411 50.7462 35.1414 50.7462 35.1415 50.7462L39.044 50.7445C39.7632 50.7443 40.3459 50.161 40.3456 49.4419C40.3453 48.723 39.7624 48.1403 39.0435 48.1403C39.0433 48.1403 39.0431 48.1403 39.043 48.1403L35.1405 48.142C34.4213 48.1422 33.8386 48.7254 33.8389 49.4446C33.8391 50.1635 34.4221 50.7462 35.141 50.7462Z" fill="#4BB1E9"/>
<path d="M49.4503 40.595C49.4504 40.595 49.4507 40.595 49.4508 40.595C50.1699 40.5947 50.7527 40.0115 50.7524 39.2923L50.7507 35.14C50.7505 34.4211 50.1675 33.8384 49.4486 33.8384C49.4485 33.8384 49.4482 33.8384 49.4481 33.8384C48.7291 33.8386 48.1462 34.4219 48.1465 35.141L48.1482 39.2934C48.1484 40.0123 48.7314 40.595 49.4503 40.595Z" fill="#4BB1E9"/>
<path d="M78.555 76.7068C78.0464 76.1985 77.2221 76.1985 76.7134 76.7068C76.2049 77.2153 76.2049 78.0398 76.7134 78.5484L81.5672 83.4022C81.8215 83.6564 82.1547 83.7836 82.4879 83.7836C82.8212 83.7836 83.1544 83.6564 83.4087 83.4022C83.9172 82.8938 83.9172 82.0693 83.4087 81.5606L78.555 76.7068Z" fill="#4BB1E9"/>
<path d="M74.1967 72.8878C73.8542 72.8878 73.5183 73.0271 73.2761 73.2695C73.034 73.5115 72.8945 73.8475 72.8945 74.1899C72.8945 74.5324 73.0339 74.8684 73.2761 75.1105C73.5183 75.3527 73.8542 75.4921 74.1967 75.4921C74.5391 75.4921 74.8751 75.3529 75.1173 75.1105C75.3593 74.8684 75.4988 74.5324 75.4988 74.1899C75.4988 73.8475 75.3595 73.5115 75.1173 73.2695C74.8751 73.0273 74.5391 72.8878 74.1967 72.8878Z" fill="#4BB1E9"/>
<path d="M84.8628 69.2505C84.8627 69.2505 84.8624 69.2505 84.8623 69.2505L80.9598 69.2522C80.2406 69.2524 79.6579 69.8357 79.6582 70.5548C79.6585 71.2737 80.2414 71.8564 80.9603 71.8564C80.9605 71.8564 80.9607 71.8564 80.9609 71.8564L84.8633 71.8547C85.5825 71.8545 86.1652 71.2713 86.1649 70.5521C86.1647 69.8332 85.5818 69.2505 84.8628 69.2505Z" fill="#4BB1E9"/>
<path d="M70.5531 79.4019C70.553 79.4019 70.5527 79.4019 70.5526 79.4019C69.8335 79.4021 69.2507 79.9853 69.251 80.7045L69.2527 84.8569C69.2529 85.5758 69.8359 86.1585 70.5548 86.1585C70.5549 86.1585 70.5552 86.1585 70.5553 86.1585C71.2744 86.1582 71.8572 85.575 71.8569 84.8558L71.8552 80.7035C71.8551 79.9844 71.2721 79.4019 70.5531 79.4019Z" fill="#4BB1E9"/>
</svg>

<svg width="120" height="120" fill="none" xmlns="http://www.w3.org/2000/svg"><circle cx="60" cy="60" r="60" fill="#F3F3F3"/><path d="M92.955 36.504a1.302 1.302 0 00-1.842 0c-2.662 2.662-4.644 6.049-5.732 9.795-.07.242-.148.491-.23.74-1.344 4.032-3.715 6.98-3.816 7.104a1.738 1.738 0 01-2.453.255c-.32-.26-.522-.61-.603-.983l-.007-.027a1.742 1.742 0 01.356-1.444c.02-.024 1.976-2.46 3.11-5.696 1.549-4.42.876-8.247-1.946-11.069a6.887 6.887 0 00-4.704-2.04c-1.79-.047-3.454.61-4.69 1.846-1.27 1.269-1.924 2.978-1.843 4.813a1.746 1.746 0 01-1.666 1.82 1.746 1.746 0 01-1.819-1.666c-.122-2.783.92-5.493 2.861-7.433 2.66-2.661 6.588-3.555 10.247-2.334 1.975.658 4.108.162 5.565-1.295a1.302 1.302 0 00-1.841-1.842 2.813 2.813 0 01-2.9.666c-4.602-1.535-9.55-.4-12.913 2.963-2.455 2.456-3.775 5.878-3.62 9.389a4.323 4.323 0 001.132 2.736l-1.793 1.793a3.99 3.99 0 00-.623-.806l-.079-.08a3.991 3.991 0 00-5.638 0 3.991 3.991 0 000 5.639l.08.078c.241.243.513.452.806.623l-2.195 2.195c-.35.35-.578.773-.692 1.22-.447.114-.87.343-1.22.692l-2.195 2.195a3.993 3.993 0 00-.623-.807l-.078-.079a3.991 3.991 0 00-5.638 0 3.991 3.991 0 000 5.638l.078.08c.242.241.514.45.807.622l-1.794 1.794a4.33 4.33 0 00-2.738-1.134c-3.51-.155-6.933 1.166-9.388 3.621-3.363 3.363-4.499 8.311-2.964 12.913a2.813 2.813 0 01-.666 2.9 1.302 1.302 0 001.842 1.841c1.457-1.457 1.954-3.59 1.295-5.564-1.221-3.66-.326-7.587 2.334-10.248 1.94-1.94 4.647-2.983 7.433-2.861.96.042 1.708.858 1.666 1.819a1.747 1.747 0 01-1.82 1.666c-1.833-.08-3.543.573-4.812 1.842-2.537 2.537-2.45 6.751.194 9.394 2.043 2.044 4.365 2.76 6.616 2.76 5.232-.001 10.08-3.867 10.15-3.924a1.746 1.746 0 012.453.256 1.738 1.738 0 01-.255 2.453c-.124.1-3.073 2.471-7.105 3.815-.244.081-.493.159-.74.23-3.746 1.089-7.133 3.07-9.794 5.732a1.302 1.302 0 001.841 1.842c2.352-2.352 5.354-4.106 8.68-5.073.278-.08.56-.169.836-.26 4.477-1.492 7.784-4.152 7.922-4.264a4.336 4.336 0 00.636-6.116l-.028-.034 1.803-1.803c.172.293.38.565.623.807l.079.079a3.991 3.991 0 005.638 0 3.991 3.991 0 000-5.638l-.08-.08a3.994 3.994 0 00-.806-.622l2.195-2.195c.35-.35.578-.773.692-1.22.447-.114.87-.342 1.22-.691l2.87-2.87a1.956 1.956 0 00-.868-3.274 1.357 1.357 0 01-.614-.357l-.079-.08a1.384 1.384 0 010-1.954 1.384 1.384 0 011.955 0l.079.079c.173.173.293.38.356.614a1.955 1.955 0 003.275.868l2.477-2.477.034.03a4.34 4.34 0 006.116-.637c.113-.138 2.772-3.444 4.264-7.922.093-.28.181-.562.26-.837.967-3.325 2.721-6.327 5.073-8.68a1.302 1.302 0 000-1.84zm-21.799 3.18c-.048-1.097.337-2.111 1.083-2.857.726-.727 1.72-1.109 2.782-1.084a4.293 4.293 0 012.929 1.277c5.102 5.103-1.283 13.206-1.345 13.283a4.35 4.35 0 00-.386.56l-.787-.787c.236-.152.457-.33.656-.53l.079-.078a3.991 3.991 0 000-5.638 3.96 3.96 0 00-2.82-1.168 3.96 3.96 0 00-2.818 1.167l-.08.08c-.198.199-.376.42-.529.656l-.929-.93a4.352 4.352 0 002.165-3.951zM37.021 77.947c-1.628-1.628-1.715-4.19-.194-5.711.747-.746 1.765-1.13 2.858-1.083a4.346 4.346 0 003.953-2.166l.96.962a4.005 4.005 0 00-.817.63l-.078.077a3.96 3.96 0 00-1.168 2.819 3.96 3.96 0 001.168 2.819 3.992 3.992 0 005.639 0l.077-.079c.245-.245.457-.52.63-.817l.816.817c-.193.112-.38.24-.557.384-.082.066-8.183 6.451-13.286 1.348zM64.004 65.91l-2.87 2.87A1.955 1.955 0 0062 72.055c.233.064.44.184.614.357l.078.079a1.384 1.384 0 010 1.955 1.384 1.384 0 01-1.954 0l-.08-.079a1.357 1.357 0 01-.356-.614 1.956 1.956 0 00-3.274-.868l-2.87 2.87a.049.049 0 01-.032.014l-.018-.005c-.007-.003-.015-.003-.02-.008l-2.877-2.877a1.967 1.967 0 00-1.897-.507 1.96 1.96 0 00-1.38 1.382 1.378 1.378 0 01-.358.62l-.078.079a1.384 1.384 0 01-2.36-.978c0-.37.144-.716.406-.978l.078-.078a1.35 1.35 0 01.62-.358 1.955 1.955 0 00.875-3.276l-2.874-2.874a.05.05 0 010-.07l2.87-2.87a1.956 1.956 0 00-.868-3.274 1.356 1.356 0 01-.613-.357l-.079-.078a1.373 1.373 0 01-.405-.978c0-.369.144-.716.405-.977s.608-.405.977-.405c.37 0 .717.144.978.405l.079.078c.173.174.293.38.356.615a1.956 1.956 0 003.274.867l2.87-2.87a.05.05 0 01.07 0l2.165 2.165a4 4 0 00-.656.53l-.078.078a3.991 3.991 0 000 5.638 3.961 3.961 0 002.819 1.168 3.96 3.96 0 002.819-1.168l.078-.079a4.01 4.01 0 00.53-.654l2.168 2.166c.02.02.02.051 0 .07zm9.56-9.56a3.993 3.993 0 00-.622-.807l-.079-.079a3.991 3.991 0 00-5.638 0 3.991 3.991 0 000 5.638l.079.08c.242.241.514.45.807.622L65.914 64a.05.05 0 01-.07 0l-2.806-2.807a1.949 1.949 0 00-1.838-.522 1.938 1.938 0 00-1.403 1.28c-.068.203-.18.383-.333.537l-.079.078a1.384 1.384 0 01-1.955 0 1.384 1.384 0 010-1.954l.08-.08c.153-.153.333-.265.536-.333a1.937 1.937 0 001.28-1.402 1.95 1.95 0 00-.523-1.838L56 54.156a.05.05 0 010-.07l2.87-2.87a1.956 1.956 0 00-.868-3.274 1.36 1.36 0 01-.614-.357l-.078-.08a1.384 1.384 0 010-1.954 1.384 1.384 0 011.954 0l.08.079c.173.173.293.38.356.614a1.955 1.955 0 003.274.868l2.87-2.87a.05.05 0 01.07 0l2.804 2.803a1.95 1.95 0 001.838.522 1.937 1.937 0 001.402-1.28c.068-.203.18-.383.333-.536l.08-.08c.26-.26.608-.404.977-.404s.716.143.977.405c.261.26.405.608.405.977 0 .37-.144.716-.405.978l-.079.078a1.368 1.368 0 01-.537.334 1.938 1.938 0 00-1.28 1.402 1.95 1.95 0 00.523 1.838l2.806 2.807c.006.005.006.012.008.019l.005.02a.048.048 0 01-.013.031l-2.195 2.195z" fill="#6ADF91"/><path d="M41.45 43.29a1.299 1.299 0 001.84 0 1.302 1.302 0 000-1.841l-4.853-4.854a1.303 1.303 0 00-1.842 1.841l4.854 4.854zm4.194 3.656a1.306 1.306 0 001.302-1.302c0-.343-.14-.677-.382-.921a1.312 1.312 0 00-.92-.382c-.343 0-.678.14-.92.382a1.312 1.312 0 00-.382.92c0 .344.139.679.381.921.243.243.578.382.92.382zm-10.503 3.8l3.903-.002a1.302 1.302 0 000-2.604h-.001l-3.902.002a1.302 1.302 0 000 2.604zM49.45 40.595c.72 0 1.303-.584 1.302-1.303l-.001-4.152a1.302 1.302 0 10-2.604.001l.001 4.152c0 .72.583 1.302 1.302 1.302zm29.105 36.112a1.303 1.303 0 00-1.842 1.841l4.854 4.854a1.298 1.298 0 001.842 0 1.302 1.302 0 000-1.841l-4.854-4.854zm-4.358-3.819c-.343 0-.679.14-.92.381a1.312 1.312 0 00-.383.92c0 .343.14.68.382.922s.578.381.92.381c.343 0 .68-.14.921-.382.242-.242.382-.578.382-.92 0-.343-.14-.678-.382-.92a1.312 1.312 0 00-.92-.382zm10.666-3.638l-3.903.002a1.302 1.302 0 000 2.604l3.903-.001a1.302 1.302 0 000-2.605zm-14.31 10.152c-.72 0-1.302.583-1.302 1.302l.002 4.153a1.302 1.302 0 102.604-.001l-.002-4.153c0-.719-.583-1.301-1.302-1.301z" fill="#4BB1E9"/></svg>
